icons/cloud-16.svg

<svg xmlns="http://www.w3.org/2000/svg" width="16" height="16" viewBox="0 0 16 16"><path d="M2 7.25A5.225 5.225 0 017.25 2a5.222 5.222 0 014.767 3.029A4.472 4.472 0 0116 9.5c0 2.505-1.995 4.5-4.5 4.5h-8A3.474 3.474 0 010 10.5c0-1.41.809-2.614 2.001-3.17zm1.54.482a.75.75 0 01-.556.832c-.86.22-1.484.987-1.484 1.936 0 1.124.876 2 2 2h8c1.676 0 3-1.324 3-3s-1.324-3-3-3a.75.75 0 01-.709-.504A3.72 3.72 0 007.25 3.5C5.16 3.5 3.5 5.16 3.5 7.25c.002.146.014.292.035.436l.004.036.001.008z"/></svg>

<svg xmlns="http://www.w3.org/2000/svg" width="16" height="16" viewBox="0 0 16 16">
  <defs/>
  <path d="M2,7.25 C1.993,5.856 2.544,4.516 3.53,3.53 C4.516,2.544 5.856,1.993 7.25,2 C9.295,1.989 11.158,3.173 12.017,5.029 C14.294,5.279 16.013,7.21 16,9.5 C16,12.005 14.005,14 11.5,14 L3.5,14 C2.57,14.007 1.676,13.64 1.018,12.982 C0.36,12.324 -0.007,11.43 0,10.5 C0,9.09 0.809,7.886 2.001,7.33 Z M3.54,7.732 C3.594,8.111 3.354,8.469 2.984,8.564 C2.124,8.784 1.5,9.551 1.5,10.5 C1.5,11.624 2.376,12.5 3.5,12.5 L11.5,12.5 C13.176,12.5 14.5,11.176 14.5,9.5 C14.5,7.824 13.176,6.5 11.5,6.5 C11.18,6.5 10.896,6.298 10.791,5.996 C10.267,4.492 8.843,3.488 7.25,3.5 C5.16,3.5 3.5,5.16 3.5,7.25 C3.502,7.396 3.514,7.542 3.535,7.686 L3.539,7.722 L3.54,7.73 Z"/>
</svg>
